src/assets/flags/sr.svg

<?xml version="1.0" encoding="UTF-8"?>
<svg xmlns="http://www.w3.org/2000/svg" xmlns:xlink="http://www.w3.org/1999/xlink" width="25px" height="px" viewBox="0 0 25 19" version="1.1">
<g id="surface1">
<path style=" stroke:none;fill-rule:nonzero;fill:rgb(21.568628%,49.411765%,24.705882%);fill-opacity:1;" d="M 0.00390625 0 L 25.003906 0 L 25.003906 19 L 0.00390625 19 Z M 0.00390625 0 "/>
<path style=" stroke:none;fill-rule:nonzero;fill:rgb(100%,100%,100%);fill-opacity:1;" d="M 0.00390625 3.800781 L 25.003906 3.800781 L 25.003906 15.199219 L 0.00390625 15.199219 Z M 0.00390625 3.800781 "/>
<path style=" stroke:none;fill-rule:nonzero;fill:rgb(70.588237%,3.921569%,17.647059%);fill-opacity:1;" d="M 0.00390625 5.699219 L 25.003906 5.699219 L 25.003906 13.300781 L 0.00390625 13.300781 Z M 0.00390625 5.699219 "/>
<path style=" stroke:none;fill-rule:nonzero;fill:rgb(92.54902%,78.431374%,11.372549%);fill-opacity:1;" d="M 12.5 6.0625 L 14.703125 12.9375 L 8.933594 8.6875 L 16.066406 8.6875 L 10.296875 12.9375 Z M 12.5 6.0625 "/>
</g>
</svg>

<svg xmlns="http://www.w3.org/2000/svg" width="25" height="px" viewBox="0 0 25 19"><path d="M.004 0h25v19h-25Zm0 0" style="stroke:none;fill-rule:nonzero;fill:#377e3f;fill-opacity:1"/><path d="M.004 3.8h25v11.4h-25Zm0 0" style="stroke:none;fill-rule:nonzero;fill:#fff;fill-opacity:1"/><path d="M.004 5.7h25v7.6h-25Zm0 0" style="stroke:none;fill-rule:nonzero;fill:#b40a2d;fill-opacity:1"/><path d="m12.5 6.063 2.203 6.875-5.77-4.25h7.133l-5.77 4.25Zm0 0" style="stroke:none;fill-rule:nonzero;fill:#ecc81d;fill-opacity:1"/></svg>
